icons/elderly_fill.svg

<svg width="48" height="48" viewBox="0 0 48 48" fill="none" xmlns="http://www.w3.org/2000/svg">
<path d="M18 15C20.2091 15 22 13.2091 22 11C22 8.79086 20.2091 7 18 7C15.7909 7 14 8.79086 14 11C14 13.2091 15.7909 15 18 15Z" fill="black"/>
<path d="M12.5161 20.9354C12.6775 20.7418 12.8393 20.5632 13 20.3993V38C13 39.0616 13.8294 39.9382 14.8894 39.9969C15.9494 40.0556 16.8706 39.276 16.9878 38.2209L17.7901 31H18.2099L19.0123 38.2209C19.1295 39.276 20.0506 40.0556 21.1106 39.9969C22.1706 39.9382 23 39.0616 23 38L23 24.3603C23.1494 23.5645 23.7113 22.4114 24.5962 21.3282C25.389 22.3029 25.9217 23.3345 26.1285 24.1117C26.1069 25.7631 24.7785 31.9425 24.2316 34.421C24.107 34.9855 24.4844 35.537 25.0572 35.6155C28.75 36.1216 31.9406 36.121 35.6027 35.6554C36.2864 35.5685 36.6851 34.8112 36.4373 34.1681C35.7 32.2554 34.5001 28.2816 34.5001 22.6778L34.5001 19.7516C34.8908 20.0529 35.3004 20.4464 35.7082 20.9354C36.7648 22.2022 37.4209 23.653 37.5068 24.5548C37.5853 25.3795 38.3176 25.9844 39.1423 25.9059C39.9669 25.8273 40.5718 25.0951 40.4933 24.2704C40.3299 22.5543 39.2923 20.5488 38.012 19.0138C36.7678 17.522 34.8932 16 32.7903 16H28.1618C26.879 16 25.6609 16.5152 24.5999 17.2482C23.5426 16.5154 22.3281 16 21.0482 16H15.434C13.3311 16 11.4565 17.522 10.2123 19.0138C8.93198 20.5488 7.89441 22.5543 7.73098 24.2704C7.65245 25.0951 8.25733 25.8273 9.08202 25.9059C9.90672 25.9844 10.6389 25.3795 10.7175 24.5548C10.8034 23.653 11.4594 22.2022 12.5161 20.9354Z" fill="black"/>
<path d="M6 28.5C6 27.1193 7.11929 26 8.5 26C9.88071 26 11 27.1193 11 28.5V39C11 39.5523 10.5523 40 10 40C9.44772 40 9 39.5523 9 39V28.5C9 28.2239 8.77614 28 8.5 28C8.22386 28 8 28.2239 8 28.5V29.5128C8 30.0651 7.55228 30.5128 7 30.5128C6.44772 30.5128 6 30.0651 6 29.5128V28.5Z" fill="black"/>
<path d="M30.5001 15C32.7092 15 34.5001 13.2091 34.5001 11C34.5001 8.79086 32.7092 7 30.5001 7C28.291 7 26.5001 8.79086 26.5001 11C26.5001 13.2091 28.291 15 30.5001 15Z" fill="black"/>
<path d="M39.5001 26C38.1194 26 37.0001 27.1193 37.0001 28.5V29.5128C37.0001 30.0651 37.4478 30.5128 38.0001 30.5128C38.5524 30.5128 39.0001 30.0651 39.0001 29.5128V28.5C39.0001 28.2239 39.224 28 39.5001 28C39.7762 28 40.0001 28.2239 40.0001 28.5V39C40.0001 39.5523 40.4478 40 41.0001 40C41.5524 40 42.0001 39.5523 42.0001 39V28.5C42.0001 27.1193 40.8808 26 39.5001 26Z" fill="black"/>
<path d="M25.5 39.3877V37.1515C26.75 37.3096 27.9265 37.4031 29.0877 37.4336L28.4471 39.7824C28.2494 40.5074 27.5457 40.9742 26.8009 40.8744C26.0561 40.7747 25.5 40.1392 25.5 39.3877Z" fill="black"/>
<path d="M32.5529 39.7824L31.899 37.3848C33.0507 37.3157 34.2327 37.187 35.5 37V39.3877C35.5 40.1392 34.9439 40.7747 34.1991 40.8744C33.4543 40.9742 32.7506 40.5074 32.5529 39.7824Z" fill="black"/>
</svg>

<svg
  xmlns="http://www.w3.org/2000/svg"
  width="24"
  height="24"
  viewBox="0 0 24 24"
  fill="none"
  stroke="currentColor"
  stroke-width="2"
  stroke-linecap="round"
  stroke-linejoin="round"
>
  <path d="M18 15a4 4 0 1 0 0-8 4 4 0 0 0 0 8" />
  <path d="M12.516 20.935A9 9 0 0 1 13 20.4V38a2 2 0 0 0 3.988.22L17.79 31h.42l.802 7.22A2 2 0 0 0 23 38V24.36c.15-.796.711-1.949 1.596-3.032.793.975 1.326 2.006 1.532 2.784-.021 1.651-1.35 7.83-1.896 10.309a.986.986 0 0 0 .825 1.194c3.693.507 6.884.506 10.546.04.683-.087 1.082-.844.834-1.487-.737-1.913-1.937-5.886-1.937-11.49v-2.926c.39.3.8.694 1.208 1.183 1.057 1.267 1.713 2.718 1.799 3.62a1.5 1.5 0 0 0 2.986-.285c-.163-1.716-1.2-3.721-2.481-5.256C36.768 17.522 34.893 16 32.79 16h-4.628c-1.283 0-2.501.515-3.562 1.248C23.543 16.515 22.328 16 21.048 16h-5.614c-2.103 0-3.977 1.522-5.222 3.014-1.28 1.535-2.318 3.54-2.481 5.256a1.5 1.5 0 0 0 2.986.285c.086-.902.742-2.353 1.8-3.62" />
  <path d="M6 28.5a2.5 2.5 0 0 1 5 0V39a1 1 0 1 1-2 0V28.5a.5.5 0 0 0-1 0v1.013a1 1 0 1 1-2 0z" />
  <path d="M30.5 15a4 4 0 1 0 0-8 4 4 0 0 0 0 8" />
  <path d="M39.5 26a2.5 2.5 0 0 0-2.5 2.5v1.013a1 1 0 1 0 2 0V28.5a.5.5 0 0 1 1 0V39a1 1 0 1 0 2 0V28.5a2.5 2.5 0 0 0-2.5-2.5" />
  <path d="M25.5 39.388v-2.236a36 36 0 0 0 3.588.282l-.64 2.348a1.5 1.5 0 0 1-2.948-.394" />
  <path d="m32.553 39.782-.654-2.397A42 42 0 0 0 35.5 37v2.388a1.5 1.5 0 0 1-2.947.394" />
</svg>
